wagtail_fa_svg/templates/wagtail-fa-svg/v6/solid/gopuram.svg

<svg id="icon-gopuram" viewbox="0 0 512 512" xmlns="http://www.w3.org/2000/svg"><!--! Font Awesome Free 6.6.0 by @fontawesome - https://fontawesome.com License - https://fontawesome.com/license/free (Icons: CC BY 4.0, Fonts: SIL OFL 1.1, Code: MIT License) Copyright 2024 Fonticons, Inc. --><path d="M120 0c13.3 0 24 10.7 24 24l0 8 40 0 0-8c0-13.3 10.7-24 24-24s24 10.7 24 24l0 8 48 0 0-8c0-13.3 10.7-24 24-24s24 10.7 24 24l0 8 40 0 0-8c0-13.3 10.7-24 24-24s24 10.7 24 24l0 8 0 32 0 64c17.7 0 32 14.3 32 32l0 64c17.7 0 32 14.3 32 32l0 96c17.7 0 32 14.3 32 32l0 96c0 17.7-14.3 32-32 32l-64 0 0-160-32 0 0-128-32 0 0-96-32 0 0 96 32 0 0 128 32 0 0 160-80 0 0-48c0-26.5-21.5-48-48-48s-48 21.5-48 48l0 48-80 0 0-160 32 0 0-128 32 0 0-96-32 0 0 96-32 0 0 128-32 0 0 160-64 0c-17.7 0-32-14.3-32-32l0-96c0-17.7 14.3-32 32-32l0-96c0-17.7 14.3-32 32-32l0-64c0-17.7 14.3-32 32-32l0-64 0-32 0-8c0-13.3 10.7-24 24-24zM256 272c-17.7 0-32 14.3-32 32l0 48 64 0 0-48c0-17.7-14.3-32-32-32zm-32-80l0 32 64 0 0-32c0-17.7-14.3-32-32-32s-32 14.3-32 32z"></path></svg>

<svg id="icon-gopuram" viewbox="0 0 512 512" xmlns="http://www.w3.org/2000/svg"><!--! Font Awesome Free 6.5.2 by @fontawesome - https://fontawesome.com License - https://fontawesome.com/license/free (Icons: CC BY 4.0, Fonts: SIL OFL 1.1, Code: MIT License) Copyright 2024 Fonticons, Inc. --><path d="M120 0c13.3 0 24 10.7 24 24v8h40V24c0-13.3 10.7-24 24-24s24 10.7 24 24v8h48V24c0-13.3 10.7-24 24-24s24 10.7 24 24v8h40V24c0-13.3 10.7-24 24-24s24 10.7 24 24v8V64v64c17.7 0 32 14.3 32 32v64c17.7 0 32 14.3 32 32v96c17.7 0 32 14.3 32 32v96c0 17.7-14.3 32-32 32H416V352H384V224H352V128H320v96h32V352h32V512H304V464c0-26.5-21.5-48-48-48s-48 21.5-48 48v48H128V352h32V224h32V128H160v96H128V352H96V512H32c-17.7 0-32-14.3-32-32V384c0-17.7 14.3-32 32-32V256c0-17.7 14.3-32 32-32V160c0-17.7 14.3-32 32-32V64 32 24c0-13.3 10.7-24 24-24zM256 272c-17.7 0-32 14.3-32 32v48h64V304c0-17.7-14.3-32-32-32zm-32-80v32h64V192c0-17.7-14.3-32-32-32s-32 14.3-32 32z"></path></svg>
